assets/Balance scale/Flat/balance_scale_flat.svg

<svg width="32" height="32" viewBox="0 0 32 32" fill="none" xmlns="http://www.w3.org/2000/svg">
<path d="M19.949 11.75H23.969C24.389 11.75 24.719 11.41 24.719 11C24.719 10.59 24.379 10.25 23.969 10.25H19.949C19.569 10.25 19.219 10.07 18.999 9.76999L16.629 6.51999C16.4584 6.2948 16.1854 6.19068 15.9243 6.22353C15.6985 6.22945 15.4794 6.33695 15.339 6.52999L12.969 9.76999C12.749 10.07 12.389 10.25 12.019 10.25H7.99902C7.58902 10.25 7.24902 10.59 7.24902 11C7.24902 11.41 7.58902 11.75 7.99902 11.75H12.019C12.869 11.75 13.679 11.34 14.179 10.66L15.9877 8.1874L17.789 10.65C18.289 11.34 19.099 11.75 19.949 11.75Z" fill="#9B9B9B"/>
<path d="M15.249 4H16.749V28H15.249V4ZM13.0391 20.73C13.1291 20.88 13.2991 20.96 13.4591 20.96C13.5491 20.96 13.6391 20.94 13.6991 20.88C13.9291 20.73 13.9991 20.42 13.8491 20.19L8.47739 11.8516C8.41545 11.646 8.22717 11.5 7.99907 11.5C7.83813 11.5 7.54907 11.77 7.54907 11.77L2.15907 20.15C2.08907 20.23 2.04907 20.34 2.04907 20.46C2.04907 20.74 2.26907 20.96 2.54907 20.96C2.71907 20.96 2.87907 20.87 2.96907 20.73L7.49902 13.6964V20.8C7.49902 21.08 7.71902 21.3 7.99902 21.3C8.27902 21.3 8.49902 21.08 8.49902 20.8V13.6947L13.0391 20.73ZM29.0391 20.73C29.1291 20.88 29.2991 20.96 29.4591 20.96C29.5491 20.96 29.6391 20.94 29.6991 20.88C29.9291 20.73 29.9991 20.42 29.8491 20.19L24.4774 11.8516C24.4154 11.646 24.2272 11.5 23.9991 11.5C23.8381 11.5 23.64 11.655 23.5491 11.77L18.1591 20.15C18.0891 20.23 18.0491 20.34 18.0491 20.46C18.0491 20.74 18.2691 20.96 18.5491 20.96C18.7191 20.96 18.8791 20.87 18.9691 20.73L23.499 13.6964V20.8C23.499 21.08 23.719 21.3 23.999 21.3C24.279 21.3 24.499 21.08 24.499 20.8V13.6947L29.0391 20.73Z" fill="#D3D3D3"/>
<path d="M17.5891 3.59C17.5891 4.46813 16.8772 5.18 15.9991 5.18C15.1209 5.18 14.4091 4.46813 14.4091 3.59C14.4091 2.71187 15.1209 2 15.9991 2C16.8772 2 17.5891 2.71187 17.5891 3.59Z" fill="#F9C23C"/>
<path d="M9.58906 11C9.58906 11.8781 8.87719 12.59 7.99906 12.59C7.12092 12.59 6.40906 11.8781 6.40906 11C6.40906 10.1219 7.12092 9.41 7.99906 9.41C8.87719 9.41 9.58906 10.1219 9.58906 11Z" fill="#F9C23C"/>
<path d="M2.01904 20.64C1.92904 20.32 2.16904 20 2.50904 20H13.489C13.829 20 14.069 20.32 13.979 20.64C13.239 23.2 10.849 25 7.99904 25C5.14904 25 2.75904 23.2 2.01904 20.64Z" fill="#F9C23C"/>
<path d="M18.019 20.64C17.929 20.32 18.169 20 18.509 20H29.489C29.829 20 30.069 20.32 29.979 20.64C29.239 23.2 26.849 25 23.999 25C21.149 25 18.759 23.2 18.019 20.64Z" fill="#F9C23C"/>
<path d="M23.3991 30C23.8791 30 24.1091 29.42 23.7591 29.09C21.7391 27.17 19.0091 26 15.9991 26C12.9891 26 10.2591 27.17 8.23908 29.09C7.88908 29.42 8.11908 30 8.59908 30H23.3991Z" fill="#F9C23C"/>
<path d="M23.9991 12.59C24.8772 12.59 25.5891 11.8781 25.5891 11C25.5891 10.1219 24.8772 9.41 23.9991 9.41C23.1209 9.41 22.4091 10.1219 22.4091 11C22.4091 11.8781 23.1209 12.59 23.9991 12.59Z" fill="#F9C23C"/>
</svg>

<svg xmlns="http://www.w3.org/2000/svg" width="32" height="32" fill="none"><path fill="#9B9B9B" d="M19.949 11.75h4.02a.749.749 0 1 0 0-1.5h-4.02c-.38 0-.73-.18-.95-.48l-2.37-3.25a.765.765 0 0 0-.705-.296.747.747 0 0 0-.585.306l-2.37 3.24c-.22.3-.58.48-.95.48h-4.02c-.41 0-.75.34-.75.75s.34.75.75.75h4.02c.85 0 1.66-.41 2.16-1.09l1.809-2.473 1.801 2.463c.5.69 1.31 1.1 2.16 1.1Z"/><path fill="#D3D3D3" d="M15.249 4h1.5v24h-1.5V4Zm-2.21 16.73c.09.15.26.23.42.23.09 0 .18-.02.24-.08a.5.5 0 0 0 .15-.69l-5.372-8.338A.494.494 0 0 0 8 11.5c-.16 0-.45.27-.45.27l-5.39 8.38c-.07.08-.11.19-.11.31 0 .28.22.5.5.5.17 0 .33-.09.42-.23l4.53-7.034V20.8c0 .28.22.5.5.5s.5-.22.5-.5v-7.105l4.54 7.035Zm16 0c.09.15.26.23.42.23.09 0 .18-.02.24-.08a.5.5 0 0 0 .15-.69l-5.372-8.338A.494.494 0 0 0 24 11.5c-.16 0-.359.155-.45.27l-5.39 8.38c-.07.08-.11.19-.11.31 0 .28.22.5.5.5.17 0 .33-.09.42-.23l4.53-7.034V20.8c0 .28.22.5.5.5s.5-.22.5-.5v-7.105l4.54 7.035Z"/><path fill="#F9C23C" d="M17.59 3.59a1.59 1.59 0 1 1-3.18 0 1.59 1.59 0 0 1 3.18 0ZM9.59 11a1.59 1.59 0 1 1-3.181 0 1.59 1.59 0 0 1 3.18 0ZM2.019 20.64c-.09-.32.15-.64.49-.64h10.98c.34 0 .58.32.49.64-.74 2.56-3.13 4.36-5.98 4.36-2.85 0-5.24-1.8-5.98-4.36ZM18.019 20.64c-.09-.32.15-.64.49-.64h10.98c.34 0 .58.32.49.64-.74 2.56-3.13 4.36-5.98 4.36-2.85 0-5.24-1.8-5.98-4.36ZM23.4 30c.48 0 .71-.58.36-.91A11.216 11.216 0 0 0 16 26c-3.01 0-5.74 1.17-7.76 3.09-.35.33-.12.91.36.91h14.8ZM24 12.59a1.59 1.59 0 1 0-.001-3.18 1.59 1.59 0 0 0 0 3.18Z"/></svg>
